X:1
T:Qui non fronte di giglio
T:Raffaello Rontani
T:Source : Le varie Musiche a uno e due voci---Roma---G.B.Robletti---1622. Editor : André Vierendeels (04/05/16).
T:Qui non fronte di giglio
T:©
T:©
T:©
T:©
C:Raffaello Rontani
Z:©
%%score [ 1 2 ] 3
L:1/8
Q:1/4=120
M:4/4
K:C
V:1 treble nm="Soprano" snm="S"
V:2 treble-8 nm="Tenor" snm="T"
V:3 bass nm="BC" snm="BC"
V:1
 G6 E2 | E2 EE E4 | E4 z2 G2 | F3 F E4 | D4 AB cd/c/ | B2 A2 z2 G2- | GG G2 A4 | G2 z2 z4 | z8 | %9
w: Qui non|fron- te di gi-|glio, e|man di ro-|sa, piu ch'al- tro- ve ri-|den- te, es-|* ce l'au- ro-|ra,||
 z8 | DE FF/F/ E/D/E/F/ G2 | F2 ED E4 | D6 A2 | c2 c2 B4 | A3 E F3 G | A2 c2 c3 B- | c2 G3 E A2 | %17
w: |piu ch'al- tro- ve ri- den- * * * *|t'es- ce l'au- ro-|ra che|men- tre spun-|ta in que- sta|piag- g'er- bo- sa,|_ al- tro fior|
 ^FF G/A/G/F/ EF/G/ A2 | ^FG/A/ B4 AA | A8 | G4 z4 | z8 | z8 | z8 | z2 G3 E A2 | %25
w: s'in- ar- gen- * * * * * * ta,|al- * * * tro s'in-|do-|ra,||||al- tro fior|
 ^FF G/A/G/F/ EF/G/ A2 | ^FG/A/ B4 AA | A8 | G8 |] %29
w: s'in- ar- gen- * * * * * * *|t'al- * * * tro s'in-|do-|ra.|
V:2
 e6 c2 | c2 cc c4 | c4 z2 e2 | e2 d2 d2 ^c2 | d4 z4 | z8 | z8 | de fg/f/ e2 d2 | z2 c3 c c2 | %9
w: Qui non|fron- te di gi-|glio, e|man di ro- *|sa,|||piu ch'al- tro- ve ri- den- ti,|es- ce l'au-|
 d4 c2 GA | _Bc/B/ A/G/A/B/ c2 B2 | ^cc d4 c2 | d8 | z8 | z8 | z8 | z4 c3 A | %17
w: ro- ra, piu ch'al-|tro- ve ri- den- * * * * t'es-|ce l'au- ro- *|ra.||||al- tro|
 d2 BB c/d/c/B/ AB/c/ | d2 Bc/d/ e2 ^cc | d8 | G4 z2 d2 | c2 c2 B4 | A2 z E F3 G | A2 c2 c2 B2 | %24
w: fior s'in- ar- gen- * * * * * *|* t'al- * * * tro s'in-|do-|ra, che|men- tre spun-|ta in que- sta|piag- g'er- bo- *|
 c4 c3 A | d2 BB c/d/c/B/ AB/c/ | d2 Bc/d/ e2 ^cc | d8 | G8 |] %29
w: sa, al- tro|fior s'in- ar- gen- * * * * * *|t'al- * * * * tro s'in-|do-|ra.|
V:3
 C,8 | C,8 | C,8 | D,4 A,,4 | D,6 A,,2 | E,2 A,,2 B,,4 | C,2 E,2 D,4 | G,,2 D,2 A,,2 D,2 | %8
 E,4 F,2 A,2 | G,4 C,4 |"^b""^-natural" G,,2 D,2 A,,2 E,2 |"^6""^5""^#" A,,2 A,,4 A,,2 | D,8 | %13
"^4" A,,4 E,4 | A,,4 D,4- |"^4 5" D,2 A,,2 G,,4 | C,6 F,2 |"^#" D,2 G,2 C,2 F,2 | %18
"^#" D,2 G,2 C,2 ^C,2 | D,8 | G,,8 | A,,4 E,4 | A,,4 D,4 | D,2 A,,2 G,,4 | C,6 F,2 | %25
"^#" D,2 G,2 C,2 F,2 |"^#" D,2 G,2 C,2 ^C,2 | D,8 | G,,8 |] %29

